!!!!SEGMENT: pl-wn--mus-247--002_zelenski-wladyslaw--dwie-piesni-op-7-zakochana.krn
!!!cenid: 18xx:3658
!!!COM: Żeleński, Władysław
!!!COM-rismID: pe41024455
!!!CDT: 1837/07/06-1921/01/23
!!!CNT: Polish
!!!GTL: Dwie pieśni op. 7
!!!OTL: Zakochana
!!!PDT:
!!!AGN:
!!!SMS-siglum: PL-Wn
!!!SMS-shelfmark: Mus.247
!!!SMS-shelfwork: 002 G
!!!SMS-variant:
!!!SMS-altvar:
!!!NIFC-rismSourceID:
!!!NIFC-islandoraID:
!!!URL-pdf-islandora:
!!!URL-scan: https://polona.pl/item/dwie-piesni-dzielo-7-wydanie-drugie-i-przerobione,NjYxODg4MDA/0 @EN{Scan on Polona} @PL{Skany w portalu Polona}
!!!ONB-nifc:
!!!OMD: Andante ma non troppo
!!!AIN: 2 piano 1 vox
!!!key: f#
**kern	**kern	**dynam	**kern	**text	**text	**text	**dynam
*part3	*part2	*part2	*part1	*part1	*part1	*part1	*part1
*staff3	*staff2	*	*staff1	*staff1	*staff1	*staff1	*
*I"Fortepian	*I"Fortepian	*	*I"Śpiew	*	*	*	*
*Ipiano	*Ipiano	*	*Ivox	*	*	*	*
*ICklav	*ICklav	*	*ICvox	*	*	*	*
*IGacmp	*IGacmp	*	*IGsolo	*	*	*	*
*clefF4	*clefG2	*	*clefG2	*	*	*	*
*k[f#c#g#]	*k[f#c#g#]	*	*k[f#c#g#]	*	*	*	*
*f#:	*f#:	*	*f#:	*	*	*	*
*M3/4	*M3/4	*	*M3/4	*	*	*	*
*>[A,B,B,B,C]	*>[A,B,B,B,C]	*	*>[A,B,B,B,C]	*	*	*	*
=1	=1	=1	=1	=1	=1	=1	=1
*>A	*>A	*	*>A	*	*	*	*
!	!	!LO:DY:b	!	!	!	!	!
(<8FF#/L	16r	pp	2.r	.	.	.	.
.	8A/L 8f#	.	.	.	.	.	.
8C#/	.	.	.	.	.	.	.
.	8A/ 8f#	.	.	.	.	.	.
8AA/	.	.	.	.	.	.	.
.	8A/ 8f#	.	.	.	.	.	.
8GG#/	.	.	.	.	.	.	.
.	8A/ 8f#	.	.	.	.	.	.
8FF#/	.	.	.	.	.	.	.
.	8A/ 8f#	.	.	.	.	.	.
8D/J)	.	.	.	.	.	.	.
.	16A/Jk 16f#	.	.	.	.	.	.
=2!|:	=2!|:	=2!|:	=2!|:	=2!|:	=2!|:	=2!|:	=2!|:
*>B	*>B	*	*>B	*	*	*	*
(8C#\L	16r	.	4r	.	.	.	.
!	!	!LO:HP:b	!	!	!	!	!
.	8c#/L	<	.	.	.	.	.
8D#X\	.	.	.	.	.	.	.
.	8c#/	.	.	.	.	.	.
!	!	!	!	!	!	!	!LO:HP:a
!	!	!	!	!	!	!	!LO:DY:a:rj
8E#X\	.	.	[2cc#\	1. Wiatr	2. Mło-	3. Lu-	p <
.	8c#/	.	.	.	.	.	.
8B\	.	.	.	.	.	.	.
.	8c#/	.	.	.	.	.	.
8A\	.	.	.	.	.	.	.
.	8c#/	.	.	.	.	.	.
8G#\J)	.	.	.	.	.	.	.
.	16B/Jk 16d	[[	.	.	.	.	.
=3	=3	=3	=3	=3	=3	=3	=3
(8F#\L	16r	.	8cc#\]	.	.	.	[
!	!	!LO:DY:b	!	!	!	!	!
.	8A/L 8c#	pp	.	.	.	.	.
!	!	!	!LO:TX:a:i:t=dolce	!	!	!	!
8C#\	.	.	8f#/	sze-	-de	-dziom	.
.	8A/ 8c#	.	.	.	.	.	.
8FF#\	.	.	8g#/	-leś-	lat-	śmie-	.
.	8A/ 8f#	.	.	.	.	.	.
8C#\	.	.	8a/	-ci	-ka	-chy,	.
.	8A/ 8f#	.	.	.	.	.	.
8F#\	.	.	8g#/	po	w_smut-	lu-	.
.	8A/ 8f#	.	.	.	.	.	.
8D\J)	.	.	8f#/	to-	-kach	-dziom	.
.	16A/Jk 16f#	.	.	.	.	.	.
=4	=4	=4	=4	=4	=4	=4	=4
!	!	!	!	!	!	!	!LO:HP:a
(8BB/L	16r	.	4e#X/	-po-	le-	dzi-	<
!	!	!LO:HP:b	!	!	!	!	!
.	8G#/L 8e#X	<	.	.	.	.	.
8C#/	.	.	.	.	.	.	.
.	8G#/ 8e#	.	.	.	.	.	.
8AA/	.	.	4f#/	-li,	-cą,	-wy,	.
.	8F#/ 8f#	.	.	.	.	.	.
8GG#/	.	.	.	.	.	.	.
.	8c#/ 8d	.	.	.	.	.	.
8FF#/	.	.	4g#/	Po-	A	Że	.
.	8c#/ 8d	.	.	.	.	.	.
8EE#X/J)	.	.	.	.	.	.	.
.	16c#/Jk 16d	.	.	.	.	.	.
=5	=5	=5	=5	=5	=5	=5	=5
!LO:TX:t=P:problem=mixed beam	!	!	!	!	!	!	!
8FF#/L	16r	.	8a\L	-mia-	na-	szlo-	.
.	8A/L 8f#	.	.	.	.	.	.
(8F#\	.	.	8b\J	.	.	.	.
.	8A/ 8f#	.	.	.	.	.	.
8C#\	.	.	8cc#\	-ta	-dal	-cham	.
.	8A/ 8f#	.	.	.	.	.	.
8F#\	.	[	8cc#\	ka-	roz-	da-	[
!	!	!LO:HP:b	!	!	!	!	!
.	8A/ 8f#	>	.	.	.	.	.
!	!	!	!LO:TX:a:i:t=con <.....>	!	!	!	!
!	!	!	!LO:TX:t=P:problem=mixed beam	!	!	!	!
8BB\	.	.	8dd\L	-li-	-pa-	-rem-	.
.	8G#/ 8f#	.	.	.	.	.	.
8D\J)	.	.	8f#/J	.	.	.	.
.	16G#/Jk 16f#	]]	.	.	.	.	.
=6	=6	=6	=6	=6	=6	=6	=6
!	!	!	!	!	!	!	!LO:DY:a
(8C#\L	16r	.	4g#/	-ną;	-cze;	-nie,	p
.	8c#/L	.	.	.	.	.	.
8D#X\	.	.	.	.	.	.	.
!	!	!LO:HP:b	!	!	!	!	!
.	8c#/	<	.	.	.	.	.
!	!	!	!	!	!	!	!LO:HP:a
8E#X\	.	.	[2cc#\	O!	Wte-	Och!	<[
.	8c#/	.	.	.	.	.	.
8B\	.	.	.	.	.	.	.
.	8c#/	.	.	.	.	.	.
8A\	.	.	.	.	.	.	.
.	8c#/	.	.	.	.	.	.
8G#X\J)	.	.	.	.	.	.	.
.	16B/Jk 16c#	[[	.	.	.	.	.
!!LO:LB:g=original
=7	=7	=7	=7	=7	=7	=7	=7
(8F#\L	16r	.	8cc#\]	.	.	.	.
!	!	!LO:DY:b	!	!	!	!	!
.	8A/L 8c#	pp	.	.	.	.	.
!	!	!	!LO:TX:a:i:t=dolce	!	!	!	!
8C#\	.	.	8f#/	a	-dy	a	.
.	8A/ 8c#	.	.	.	.	.	.
8FF#\	.	.	8g#/	ser-	tyl-	lu-	.
.	8A/ 8f#	.	.	.	.	.	.
8C#\	.	.	8a/	-ce	-ko	-by	.
.	8A/ 8f#	.	.	.	.	.	.
8F#\	.	.	8g#/	ser-	lżej	czar-	.
.	8A/ 8f#	.	.	.	.	.	.
8D\J)	.	.	8f#/	-ce	mi	-no-	.
.	16A/Jk 16f#	.	.	.	.	.	.
=8	=8	=8	=8	=8	=8	=8	=8
!	!	!	!	!	!	!	!LO:HP:a
(8BB/L	16r	.	4e#X/	bo-	nie-	-bry-	<
.	8G#/L 8e#X	.	.	.	.	.	.
8C#/	.	.	.	.	.	.	.
!	!	!LO:HP:b	!	!	!	!	!
.	8G#/ 8e#	<	.	.	.	.	.
8AA/	.	.	4f#/	-li,	-co,	-wy,	.
.	8F#/ 8f#	.	.	.	.	.	.
8GG#/	.	.	.	.	.	.	.
.	8B/ 8c#	.	.	.	.	.	.
8FF#/	.	.	4g#/	Łzy	Gdy	Da-	.
.	8B/ 8c#	.	.	.	.	.	.
8EE#X/J)	.	.	.	.	.	.	.
.	16B/Jk 16c#	.	.	.	.	.	.
=9	=9	=9	=9	=9	=9	=9	=9
!LO:TX:t=P:problem=mixed beam	!	!	!	!	!	!	!
(8FF#/L	16r	.	8a\L	pły-	w_ką-	-le-	.
.	8A/L 8c#	.	.	.	.	.	.
8FFn/	.	.	8b\J	.	.	.	.
.	8A/ 8d#X	.	.	.	.	.	.
8EEn/	.	.	8cc#\	-ną	-tku	-ko	.
.	8A/ 8c# 8e	.	.	.	.	.	.
8F#\	.	.	8cc#\	i	po-	o-	[
.	8A/ 8d#X 8a	[	.	.	.	.	.
!	!	!	!	!	!	!	!LO:HP:a
8E\	.	.	8f#/L	pły-	-pła-	-de	>
!	!	!LO:HP:b	!	!	!	!	!
.	8B/ 8dn 8a	>	.	.	.	.	.
8EE/J)	.	.	8g#/J	.	.	.	.
.	16B/Jk 16d 16g#	.	.	.	.	.	.
=10	=10	=10	=10	=10	=10	=10	=10
(8AA/L	16r	]	4a\	-ną	-czę.	mnie.	]
!	!	!LO:HP:b:t=cresc. e molto espreſsivo	!	!	!	!	!
.	8A/L 8c# 8a	<	.	.	.	.	.
8GGn/	.	.	.	.	.	.	.
.	8A/ 8c# 8a	.	.	.	.	.	.
!	!	!	!	!	!	!	!LO:HP:a
8FF#/	.	.	[2ff#\	O!	Wte-	Och!	<[
.	8A/ 8d 8a	.	.	.	.	.	.
8EE/	.	.	.	.	.	.	.
.	8d/ 8f# 8a	.	.	.	.	.	.
8DD/	.	.	.	.	.	.	.
.	8e/ 8f# 8a#X	.	.	.	.	.	.
8CCn/J	.	.	.	.	.	.	.
.	16e/Jk 16f# 16a#	.	.	.	.	.	.
=11	=11	=11	=11	=11	=11	=11	=11
(8BBB/L)	16r	.	8ff#\]	.	.	.	.
.	8d#X/L 8f# 8b	.	.	.	.	.	.
!	!	!	!	!	!	!	!LO:HP:a:t=cresc. e molto espreſsivo
8BB/	.	.	8ee\	a	-dy	a	<
.	8e/ 8f# 8b	.	.	.	.	.	.
8BBB/	.	.	8dd#X\	ser-	tyl-	lu-	.
.	8d#/ 8f# 8b	.	.	.	.	.	.
8CC#/	.	.	8cc#\	-ce	-ko	-by	.
.	8c#/ 8f# 8b	.	.	.	.	.	.
8DD#X/	.	.	8b\	ser-	lżej	czar-	.
.	8B/ 8f# 8b	.	.	.	.	.	.
8FF#/J)	.	.	8a\	-ce	mi	-no-	.
.	16B/Jk 16d# 16a	.	.	.	.	.	.
=12	=12	=12	=12	=12	=12	=12	=12
(8EE/L	16r	.	4g#/	bo-	nie-	-bry-	.
.	8B/L 8f# 8g#	.	.	.	.	.	.
8BB/	.	.	.	.	.	.	.
.	8B/ 8e 8g#	.	.	.	.	.	.
8EE/	.	.	4a/	-li,	-co,	-wy,	.
.	8B/ 8f# 8a	.	.	.	.	.	.
8DD#X/	.	.	.	.	.	.	.
.	8B/ 8f# 8a	.	.	.	.	.	.
8DDn/	.	.	8b\L	Łzy	Gdy	Da-	.
.	8B/ 8f# 8b	.	.	.	.	.	.
8DnX/J)	.	.	8b#X\J	.	.	.	.
.	16B#X/Jk 16f# 16b#X	.	.	.	.	.	.
!!LO:LB:g=original
=13	=13	=13	=13	=13	=13	=13	=13
(8C#/L	16r	.	4cc#\	pły-	w_kąt-	-le-	.
.	8c#/L 8a 8cc#	.	.	.	.	.	.
8FF#/	.	.	.	.	.	.	.
.	8c#/ 8a 8cc#	.	.	.	.	.	.
8CC#/	.	.	8f#/	-ną	-ku	-ko	.
!	!	!LO:HP:b:t=dimin	!	!	!	!	!
.	8c#/ 8f# 8a	>	.	.	.	.	.
!	!	!	!	!	!	!	!LO:HP:a
8C#/	.	.	8a/	i	po-	o-	>
.	8B#X/ 8f# 8a	.	.	.	.	.	.
8D/	.	.	4g#/	pły-	-pła-	-de	.
.	8Bn/ 8f# 8g#	.	.	.	.	.	.
8C#/J	.	.	.	.	.	.	.
.	16B/Jk 16e#X 16g#	.	.	.	.	.	.
=14	=14	=14	=14	=14	=14	=14	=14
(8FF#/L)	16r	.	4f#/	-ną.	-czę.	mnie.	]
.	8A/L 8f#	pp	.	.	.	.	.
8C#/	.	.	.	.	.	.	.
.	8A/ 8f#	.	.	.	.	.	.
8AA/	.	.	4r	.	.	.	.
.	8A/ 8f#	.	.	.	.	.	.
8GG#/	.	.	.	.	.	.	.
.	8A/ 8f#	.	.	.	.	.	.
8FF#/	.	.	4r	.	.	.	.
.	8A/ 8f#	.	.	.	.	.	.
8D/J)	.	.	.	.	.	.	.
.	[16A/Jk [16f#	.	.	.	.	.	.
=15:|!	=15:|!	=15:|!	=15:|!	=15:|!	=15:|!	=15:|!	=15:|!
*>C	*>C	*	*>C	*	*	*	*
!	!LO:TX:b:i:t=riten	!LO:HP:b	!	!	!	!	!
(8C#/L	16A/KL] 16f#]	>	2.r;	.	.	.	.
.	8A/ 8f#	.	.	.	.	.	.
8CC#/J	.	.	.	.	.	.	.
.	[16A/Jk [16f#	.	.	.	.	.	.
2FF#;>/)	2A;>/] 2f#]	]	.	.	.	.	.
==	==	==	==	==	==	==	==
*-	*-	*-	*-	*-	*-	*-	*-
!!!system-decoration: s1{(s2,s3)}
!!!RDF**kern: < = below
!!!RDF**kern: > = above
!!!ENC: Andrzej Gręziak
!!!END: 2022-02-17
!!!ENC: Marta Chmielewska
!!!END: 2022-02-18
